assets/Sun behind cloud/Flat/sun_behind_cloud_flat.svg

<svg width="32" height="32" viewBox="0 0 32 32" fill="none" xmlns="http://www.w3.org/2000/svg">
<path d="M27.9882 13.8433C24.0846 10.0386 17.8633 10.0563 13.9975 13.8722L11.9495 14.5761C11.2423 14.6298 10.5861 14.8656 10.0275 15.2367L7.98121 15.94C4.08131 16.1929 1 19.4327 1 23.3969C1 25.1533 1.61205 26.77 2.6234 28.0488C3.99737 29.8454 6.15767 31 8.5931 31H21.3084C24.4651 31 27.2531 29.4454 28.9564 27.0672C31.9727 23.1061 31.6493 17.4153 27.9882 13.8433Z" fill="#B4ACBC"/>
<path d="M10.0677 5.22126C10.8678 3.58635 13.2282 3.59425 14.0123 5.23706C14.3083 5.85311 15.0604 6.09795 15.6685 5.77413L16.0445 5.57668C17.5087 4.79476 19.237 6.04266 18.9249 7.66177L18.8449 8.07248C18.7169 8.74381 19.181 9.37566 19.8611 9.47044L20.2851 9.52573C21.9333 9.74687 22.5894 11.7609 21.3733 12.8824L21.0612 13.1746C20.5571 13.6406 20.5571 14.4225 21.0532 14.8964L21.3653 15.1887C22.5734 16.326 21.9013 18.3321 20.2451 18.5375L19.821 18.5927C19.141 18.6796 18.6689 19.3115 18.7889 19.9828L18.8689 20.3935C19.165 22.0126 17.4287 23.2447 15.9725 22.4549L15.5965 22.2496C14.9964 21.9257 14.2363 22.1627 13.9323 22.7787C13.1322 24.4136 10.7718 24.4058 9.98773 22.7629C9.69169 22.1469 8.93959 21.9021 8.33151 22.2259L7.95545 22.4233C6.49126 23.2052 4.76303 21.9573 5.07507 20.3382L5.15508 19.9275C5.2831 19.2562 4.81904 18.6243 4.13895 18.5296L3.71489 18.4743C2.06667 18.2531 1.41058 16.2391 2.62674 15.1176L2.93878 14.8254C3.44285 14.3594 3.44285 13.5775 2.94678 13.1036L2.63474 12.8113C1.42658 11.674 2.09867 9.66789 3.75489 9.46254L4.17895 9.40725C4.85904 9.32037 5.33111 8.68853 5.21109 8.01719L5.13108 7.60649C4.83504 5.98738 6.57127 4.75527 8.02746 5.54508L8.40352 5.75043C9.0116 6.07425 9.7637 5.83731 10.0677 5.22126Z" fill="#FF822D"/>
<path d="M12 22C16.4183 22 20 18.4183 20 14C20 9.58172 16.4183 6 12 6C7.58172 6 4 9.58172 4 14C4 18.4183 7.58172 22 12 22Z" fill="#F9C23C"/>
<path d="M14.575 14.7097C18.0419 11.1527 23.7332 11.0925 27.2902 14.5594C30.5868 17.7758 30.8774 22.9059 28.152 26.473C26.6289 28.6072 24.134 30 21.3084 30H8.5931C6.4789 30 4.60517 28.998 3.4128 27.4349C2.53105 26.3227 2 24.9199 2 23.3969C2 19.8198 4.89575 16.9241 8.47286 16.9241C8.51013 16.9241 8.58444 16.925 8.58444 16.925C9.22189 15.5321 10.6279 14.5643 12.26 14.5643C12.9766 14.5643 13.6497 14.751 14.2333 15.0782C14.343 14.953 14.4569 14.8302 14.575 14.7097Z" fill="#F3EEF8"/>
</svg>

<svg xmlns="http://www.w3.org/2000/svg" width="32" height="32" fill="none"><path fill="#B4ACBC" d="M27.988 13.843c-3.903-3.804-10.125-3.787-13.99.03l-2.048.703a4.016 4.016 0 0 0-1.922.66l-2.047.704A7.47 7.47 0 0 0 1 23.397c0 1.756.612 3.373 1.623 4.652A7.492 7.492 0 0 0 8.593 31h12.715a9.388 9.388 0 0 0 7.648-3.933c3.017-3.96 2.693-9.652-.968-13.224Z"/><path fill="#FF822D" d="M10.068 5.221c.8-1.635 3.16-1.627 3.944.016.296.616 1.048.86 1.656.537l.377-.197c1.464-.782 3.192.466 2.88 2.085l-.08.41A1.19 1.19 0 0 0 19.86 9.47l.424.056c1.648.22 2.304 2.235 1.088 3.356l-.312.293a1.176 1.176 0 0 0-.008 1.721l.312.293c1.208 1.137.536 3.143-1.12 3.349l-.424.055a1.194 1.194 0 0 0-1.032 1.39l.08.41c.296 1.62-1.44 2.852-2.896 2.062l-.377-.205a1.216 1.216 0 0 0-1.664.529c-.8 1.635-3.16 1.627-3.944-.016a1.206 1.206 0 0 0-1.656-.537l-.377.197c-1.464.782-3.192-.466-2.88-2.085l.08-.41A1.189 1.189 0 0 0 4.14 18.53l-.424-.056c-1.648-.22-2.304-2.235-1.088-3.356l.312-.293a1.176 1.176 0 0 0 .008-1.721l-.312-.293c-1.208-1.137-.536-3.143 1.12-3.348l.424-.056a1.194 1.194 0 0 0 1.032-1.39l-.08-.41c-.296-1.62 1.44-2.852 2.896-2.062l.377.205c.608.324 1.36.087 1.664-.529Z"/><path fill="#F9C23C" d="M12 22a8 8 0 1 0 0-16 8 8 0 0 0 0 16Z"/><path fill="#F3EEF8" d="M14.575 14.71c3.467-3.557 9.158-3.618 12.715-.15 3.297 3.216 3.587 8.346.862 11.913A8.388 8.388 0 0 1 21.308 30H8.593a6.492 6.492 0 0 1-5.18-2.565A6.482 6.482 0 0 1 2 23.397a6.47 6.47 0 0 1 6.584-6.472 4.04 4.04 0 0 1 5.65-1.847 9 9 0 0 1 .341-.368Z"/></svg>
